data/icons/folders/pink.svg

<?xml version="1.0" encoding="UTF-8" standalone="no"?>
<svg
   height="128px"
   viewBox="0 0 128 128"
   width="128px"
   version="1.1"
   id="svg21"
   sodipodi:docname="folder.svg"
   inkscape:version="1.2.2 (b0a8486541, 2022-12-01)"
   xmlns:inkscape="http://www.inkscape.org/namespaces/inkscape"
   xmlns:sodipodi="http://sodipodi.sourceforge.net/DTD/sodipodi-0.dtd"
   xmlns="http://www.w3.org/2000/svg"
   xmlns:svg="http://www.w3.org/2000/svg">
  <defs
     id="defs25" />
  <sodipodi:namedview
     id="namedview23"
     pagecolor="#ffffff"
     bordercolor="#000000"
     borderopacity="0.25"
     inkscape:showpageshadow="2"
     inkscape:pageopacity="0.0"
     inkscape:pagecheckerboard="0"
     inkscape:deskcolor="#d1d1d1"
     showgrid="false"
     inkscape:zoom="3.828125"
     inkscape:cx="61.126531"
     inkscape:cy="31.216327"
     inkscape:window-width="1536"
     inkscape:window-height="795"
     inkscape:window-x="0"
     inkscape:window-y="0"
     inkscape:window-maximized="1"
     inkscape:current-layer="svg21" />
  <linearGradient
     id="a"
     gradientTransform="matrix(0.45451 0 0 0.455522 -1210.292114 616.172607)"
     gradientUnits="userSpaceOnUse"
     x1="2689.251953"
     x2="2918.069824"
     y1="-1106.802979"
     y2="-1106.802979">
    <stop
       offset="0"
       stop-color="#62a0ea"
       id="stop2"
       style="stop-color:#e64392;stop-opacity:1;" />
    <stop
       offset="0.0576991"
       stop-color="#afd4ff"
       id="stop4"
       style="stop-color:#eea4c8;stop-opacity:1;" />
    <stop
       offset="0.122204"
       stop-color="#62a0ea"
       id="stop6"
       style="stop-color:#e64392;stop-opacity:1;" />
    <stop
       offset="0.87330598"
       stop-color="#62a0ea"
       id="stop8"
       style="stop-color:#e64392;stop-opacity:1;" />
    <stop
       offset="0.95599699"
       stop-color="#c0d5ea"
       id="stop10"
       style="stop-color:#eea4c8;stop-opacity:1;" />
    <stop
       offset="1"
       stop-color="#62a0ea"
       id="stop12"
       style="stop-color:#e64392;stop-opacity:1;" />
  </linearGradient>
  <path
     d="m 21.976562 12 c -5.527343 0 -9.976562 4.460938 -9.976562 10 v 86.03125 c 0 5.542969 4.449219 10 9.976562 10 h 84.042969 c 5.53125 0 9.980469 -4.457031 9.980469 -10 v -72.085938 c 0 -6.628906 -5.359375 -12 -11.972656 -12 h -46.027344 c -2.453125 0 -4.695312 -1.386718 -5.796875 -3.582031 l -1.503906 -2.992187 c -1.65625 -3.292969 -5.019531 -5.371094 -8.699219 -5.371094 z m 0 0"
     fill="#438de6"
     id="path15"
     style="fill:#e64392;fill-opacity:1" />
  <path
     d="m 65.976562 36 c -2.746093 0 -5.226562 1.101562 -7.027343 2.890625 c -2.273438 2.253906 -5.382813 5.109375 -8.632813 5.109375 h -28.339844 c -5.527343 0 -9.976562 4.460938 -9.976562 10 v 54.03125 c 0 5.542969 4.449219 10 9.976562 10 h 84.042969 c 5.53125 0 9.980469 -4.457031 9.980469 -10 v -62.03125 c 0 -5.539062 -4.449219 -10 -9.980469 -10 z m 0 0"
     fill="url(#a)"
     id="path17" />
  <path
     d="m 65.976562 32 c -2.746093 0 -5.226562 1.101562 -7.027343 2.890625 c -2.273438 2.253906 -5.382813 5.109375 -8.632813 5.109375 h -28.339844 c -5.527343 0 -9.976562 4.460938 -9.976562 10 v 55.976562 c 0 5.539063 4.449219 10 9.976562 10 h 84.042969 c 5.53125 0 9.980469 -4.460937 9.980469 -10 v -63.976562 c 0 -5.539062 -4.449219 -10 -9.980469 -10 z m 0 0"
     fill="#a4caee"
     id="path19"
     style="fill:#eea4c8;fill-opacity:1" />
</svg>

<svg xmlns="http://www.w3.org/2000/svg" viewBox="0 0 128 128"><linearGradient id="a" x1="2689.252" x2="2918.07" y1="-1106.803" y2="-1106.803" gradientTransform="matrix(.45451 0 0 .455522 -1210.292 616.173)" gradientUnits="userSpaceOnUse"><stop offset="0" stop-color="#62a0ea" style="stop-color:#e64392;stop-opacity:1"/><stop offset=".058" stop-color="#afd4ff" style="stop-color:#eea4c8;stop-opacity:1"/><stop offset=".122" stop-color="#62a0ea" style="stop-color:#e64392;stop-opacity:1"/><stop offset=".873" stop-color="#62a0ea" style="stop-color:#e64392;stop-opacity:1"/><stop offset=".956" stop-color="#c0d5ea" style="stop-color:#eea4c8;stop-opacity:1"/><stop offset="1" stop-color="#62a0ea" style="stop-color:#e64392;stop-opacity:1"/></linearGradient><path fill="#438de6" d="M21.977 12C16.449 12 12 16.46 12 22v86.031c0 5.543 4.45 10 9.977 10h84.043a9.965 9.965 0 0 0 9.98-10V35.945c0-6.629-5.36-12-11.973-12H58a6.487 6.487 0 0 1-5.797-3.582L50.7 17.371A9.74 9.74 0 0 0 42 12zm0 0" style="fill:#e64392;fill-opacity:1"/><path fill="url(#a)" d="M65.977 36a9.93 9.93 0 0 0-7.028 2.89C56.676 41.146 53.566 44 50.316 44h-28.34C16.45 44 12 48.46 12 54v54.031c0 5.543 4.45 10 9.977 10h84.043a9.965 9.965 0 0 0 9.98-10V46c0-5.54-4.45-10-9.98-10zm0 0"/><path fill="#a4caee" d="M65.977 32a9.93 9.93 0 0 0-7.028 2.89C56.676 37.146 53.566 40 50.316 40h-28.34C16.45 40 12 44.46 12 50v55.977c0 5.539 4.45 10 9.977 10h84.043c5.53 0 9.98-4.461 9.98-10V42c0-5.54-4.45-10-9.98-10zm0 0" style="fill:#eea4c8;fill-opacity:1"/></svg>
